dist/images/svg/person.svg

<svg width="24" height="24" xmlns="http://www.w3.org/2000/svg" xmlns:xlink="http://www.w3.org/1999/xlink"><defs><path d="M12 12c2.21 0 4-1.79 4-4s-1.79-4-4-4-4 1.79-4 4 1.79 4 4 4zm0 2c-2.67 0-8 1.34-8 4v2h16v-2c0-2.66-5.33-4-8-4z" id="a"/></defs><use fill="#40b550" xlink:href="#a"/></svg>

<?xml version="1.0" encoding="UTF-8"?>
<svg width="24px" height="24px" viewBox="0 0 24 24" version="1.1" xmlns="http://www.w3.org/2000/svg" xmlns:xlink="http://www.w3.org/1999/xlink">
    <!-- Generator: Sketch 49.1 (51147) - http://www.bohemiancoding.com/sketch -->
    <title>Elements / Icons / S /  Person</title>
    <desc>Created with Sketch.</desc>
    <defs>
        <path d="M12,12 C14.21,12 16,10.21 16,8 C16,5.79 14.21,4 12,4 C9.79,4 8,5.79 8,8 C8,10.21 9.79,12 12,12 Z M12,14 C9.33,14 4,15.34 4,18 L4,20 L20,20 L20,18 C20,15.34 14.67,14 12,14 Z" id="path-1"></path>
    </defs>
    <g id="Symbols" stroke="none" stroke-width="1" fill="none" fill-rule="evenodd">
        <g id="Elements-/-Icons-/-S-/--Person">
            <mask id="mask-2" fill="white">
                <use xlink:href="#path-1"></use>
            </mask>
            <use id="Shape" fill="#40b550" fill-rule="nonzero" xlink:href="#path-1"></use>
        </g>
    </g>
</svg>
